; generated by Slic3r 1.2.9 on 2016-05-16 at 21:01:32

; external perimeters extrusion width = 0.40mm
; perimeters extrusion width = 0.40mm
; infill extrusion width = 0.67mm
; solid infill extrusion width = 0.67mm
; top infill extrusion width = 0.40mm

M107
M190 S50 ; set bed temperature
M104 S195 ; set temperature
G28 ; home all axes
G1 Z5 F5000 ; lift nozzle

;Pre-Extrude
;G0 F9000 X0 Y0 Z0.300
;G1 F1200 X2.000 Y80.000 E2.000 ;Extrude strip 
;G92 E0                  ;zero the extruded length again

M109 S195 ; wait for temperature to be reached
G21 ; set units to millimeters
G90 ; use absolute coordinates
M82 ; use absolute distances for extrusion
G92 E0
G1 Z0.350 F4500.000
G1 E-0.60000 F3600.00000
G92 E0
G1 X89.370 Y89.561 F4500.000
G1 E0.60000 F3600.00000
G1 X89.791 Y89.149 E0.66851 F1200.000
G1 X90.436 Y88.577 E0.76894
G1 X93.785 Y85.916 E1.26679
G1 X96.034 Y84.642 E1.56761
G1 X99.001 Y84.100 E1.91863
G1 X101.001 Y84.100 E2.15142
G1 X103.554 Y84.498 E2.45225
G1 X106.216 Y85.916 E2.80327 F1200.000
G1 X109.250 Y88.319 E3.25375
G1 X110.004 Y88.959 E3.36891
G1 X110.510 Y89.438 E3.44995
G1 X110.928 Y89.872 E3.52008
G1 X111.320 Y90.312 E3.58865
G1 X111.833 Y90.946 E3.68361
G1 X112.387 Y91.719 E3.79436
G1 X113.003 Y92.724 E3.93149
G1 X113.537 Y93.773 E4.06850
G1 X113.986 Y94.862 E4.20557
G1 X114.348 Y95.983 E4.34271
G1 X114.621 Y97.128 E4.47976
G1 X114.802 Y98.292 E4.61684
G1 X114.886 Y99.354 E4.74086
G1 X114.900 Y100.042 E4.82098
G1 X114.887 Y100.631 E4.88952
G1 X114.790 Y101.804 E5.02652
G1 X114.599 Y102.981 E5.16535
G1 X114.322 Y104.112 E5.30083
G1 X113.947 Y105.244 E5.43958
G1 X113.490 Y106.328 E5.57657
G1 X112.947 Y107.374 E5.71372
G1 X112.324 Y108.374 E5.85081
G1 X111.624 Y109.321 E5.98791
G1 X110.852 Y110.210 E6.12501
G1 X110.011 Y111.036 E6.26213
G1 X109.109 Y111.792 E6.39917
G1 X108.149 Y112.474 E6.53625
G1 X107.138 Y113.079 E6.67333
G1 X106.083 Y113.602 E6.81044
G1 X104.989 Y114.040 E6.94757
G1 X103.864 Y114.390 E7.08474
G1 X102.715 Y114.650 E7.22179
G1 X101.551 Y114.819 E7.35878
G1 X100.963 Y114.869 E7.42745
G1 X100.126 Y114.899 E7.52493
G1 X98.948 Y114.862 E7.66212
G1 X98.361 Y114.809 E7.73072
G1 X97.536 Y114.694 E7.82764
G1 X96.864 Y114.566 E7.90723
G1 X96.291 Y114.430 E7.97576
G1 X95.162 Y114.092 E8.11296
G1 X94.064 Y113.666 E8.25007
G1 X93.004 Y113.154 E8.38709
G1 X91.986 Y112.561 E8.52419
G1 X91.496 Y112.234 E8.59274
G1 X90.817 Y111.732 E8.69109
G1 X89.918 Y110.969 E8.82828
G1 X89.492 Y110.562 E8.89688
G1 X88.919 Y109.958 E8.99380
G1 X88.477 Y109.445 E9.07260
G1 X88.113 Y108.982 E9.14120
G1 X87.440 Y108.015 E9.27827
G1 X86.846 Y106.997 E9.41540
G1 X86.335 Y105.937 E9.55248
G1 X85.908 Y104.838 E9.68965
G1 X85.729 Y104.278 E9.75808
G1 X85.508 Y103.455 E9.85725
G1 X85.280 Y102.299 E9.99443
G1 X85.201 Y101.715 E10.06304
G1 X85.128 Y100.885 E10.15995
G1 X85.103 Y100.215 E10.23802
G1 X85.106 Y99.626 E10.30662
G1 X85.182 Y98.450 E10.44371
G1 X85.351 Y97.285 E10.58073
G1 X85.611 Y96.136 E10.71794
G1 X85.961 Y95.013 E10.85484
G1 X86.169 Y94.461 E10.92350
G1 X86.512 Y93.674 E11.02340
G1 X87.054 Y92.627 E11.16058
G1 X87.356 Y92.121 E11.22920
G1 X87.816 Y91.427 E11.32611
G1 X88.209 Y90.892 E11.40335
G1 X88.578 Y90.434 E11.47186
G1 X89.328 Y89.604 E11.60208
G1 X89.944 Y90.118 F4500.000
G1 X90.342 Y89.728 E11.66692 F1200.000
G1 X90.944 Y89.194 E11.76063
G1 X94.282 Y86.543 E12.25674
G1 X96.430 Y85.348 E12.54279
G1 X99.001 Y84.900 E12.84655
G1 X101.001 Y84.900 E13.07934
G1 X103.426 Y85.298 E13.36539
G1 X105.719 Y86.543 E13.66916 F1200.000
G1 X108.753 Y88.946 E14.11964
G1 X109.472 Y89.556 E14.22937
G1 X109.947 Y90.007 E14.30555
G1 X110.343 Y90.417 E14.37201
G1 X110.714 Y90.834 E14.43690
G1 X111.194 Y91.427 E14.52567
G1 X111.724 Y92.166 E14.63157
G1 X112.306 Y93.117 E14.76133
G1 X112.811 Y94.110 E14.89100
G1 X113.236 Y95.140 E15.02071
G1 X113.579 Y96.201 E15.15049
G1 X113.836 Y97.285 E15.28019
G1 X114.008 Y98.387 E15.40992
G1 X114.087 Y99.395 E15.52767
G1 X114.100 Y100.042 E15.60301
G1 X114.087 Y100.613 E15.66948
G1 X113.995 Y101.723 E15.79914
G1 X113.815 Y102.824 E15.92899
G1 X113.548 Y103.907 E16.05872
G1 X113.197 Y104.965 E16.18851
G1 X112.764 Y105.991 E16.31815
G1 X112.251 Y106.981 E16.44793
G1 X111.661 Y107.927 E16.57767
G1 X110.998 Y108.823 E16.70742
G1 X110.267 Y109.664 E16.83716
G1 X109.471 Y110.445 E16.96692
G1 X108.617 Y111.161 E17.09661
G1 X107.709 Y111.806 E17.22633
G1 X106.752 Y112.378 E17.35606
G1 X105.753 Y112.873 E17.48581
G1 X104.718 Y113.287 E17.61558
G1 X103.653 Y113.618 E17.74538
G1 X102.566 Y113.864 E17.87509
G1 X101.464 Y114.024 E18.00473
G1 X100.907 Y114.071 E18.06971
G1 X100.126 Y114.099 E18.16076
G1 X99.011 Y114.064 E18.29058
G1 X98.455 Y114.014 E18.35550
G1 X97.662 Y113.904 E18.44873
G1 X97.029 Y113.783 E18.52375
G1 X96.487 Y113.655 E18.58861
G1 X95.418 Y113.334 E18.71844
G1 X94.379 Y112.931 E18.84819
G1 X93.376 Y112.446 E18.97786
G1 X92.413 Y111.884 E19.10760
G1 X91.950 Y111.575 E19.17248
G1 X91.315 Y111.106 E19.26431
G1 X90.464 Y110.385 E19.39413
G1 X90.061 Y110.000 E19.45905
G1 X89.509 Y109.419 E19.55228
G1 X89.093 Y108.935 E19.62658
G1 X88.748 Y108.496 E19.69150
G1 X88.113 Y107.581 E19.82122
G1 X87.551 Y106.618 E19.95099
G1 X87.067 Y105.614 E20.08072
G1 X86.664 Y104.574 E20.21052
G1 X86.494 Y104.045 E20.27528
G1 X86.287 Y103.276 E20.36786
G1 X86.071 Y102.182 E20.49767
G1 X85.996 Y101.629 E20.56260
G1 X85.926 Y100.832 E20.65583
G1 X85.903 Y100.199 E20.72947
G1 X85.906 Y99.642 E20.79438
G1 X85.978 Y98.529 E20.92412
G1 X86.138 Y97.427 E21.05379
G1 X86.385 Y96.339 E21.18363
G1 X86.716 Y95.276 E21.31319
G1 X86.913 Y94.754 E21.37817
G1 X87.233 Y94.019 E21.47141
G1 X87.746 Y93.029 E21.60122
G1 X88.335 Y92.082 E21.73104
G1 X88.997 Y91.185 E21.86086
G1 X89.355 Y90.756 E21.92579
G1 X89.902 Y90.161 E22.01993
G1 X90.518 Y90.675 F4500.000
G1 X91.056 Y90.158 E22.10685 F1200.000
G1 X91.641 Y89.657 E22.19640
G1 X94.778 Y87.170 E22.66246
G1 X96.820 Y86.059 E22.93293
G1 X99.001 Y85.700 E23.19019
G1 X101.001 Y85.700 E23.42298
G1 X103.290 Y86.097 E23.69346
G1 X105.223 Y87.170 E23.95072 F1200.000
G1 X108.355 Y89.653 E24.41597
G1 X109.004 Y90.212 E24.51566
G1 X109.522 Y90.715 E24.59968
G1 X110.108 Y91.356 E24.70080
G1 X110.701 Y92.102 E24.81169
G1 X111.161 Y92.767 E24.90583
G1 X111.698 Y93.672 E25.02828
G1 X112.161 Y94.616 E25.15074
G1 X112.549 Y95.594 E25.27320
G1 X112.809 Y96.420 E25.37392
G1 X113.052 Y97.442 E25.49627
G1 X113.213 Y98.481 E25.61864
G1 X113.292 Y99.517 E25.73951
G1 X113.288 Y100.582 E25.86345
G1 X113.200 Y101.629 E25.98577
G1 X113.030 Y102.667 E26.10825
G1 X112.779 Y103.688 E26.23062
G1 X112.447 Y104.686 E26.35305
G1 X112.039 Y105.654 E26.47535
G1 X111.554 Y106.588 E26.59777
G1 X110.998 Y107.480 E26.72015
G1 X110.372 Y108.325 E26.84254
G1 X109.682 Y109.119 E26.96492
G1 X108.932 Y109.855 E27.08732
G1 X108.125 Y110.530 E27.20966
G1 X107.268 Y111.139 E27.33203
G1 X106.366 Y111.678 E27.45440
G1 X105.423 Y112.144 E27.57680
G1 X104.460 Y112.530 E27.69760
G1 X103.442 Y112.847 E27.82165
G1 X102.417 Y113.079 E27.94400
G1 X101.377 Y113.228 E28.06629
G1 X100.852 Y113.273 E28.12759
G1 X100.126 Y113.299 E28.21220
G1 X99.074 Y113.267 E28.33466
G1 X98.550 Y113.220 E28.39590
G1 X97.788 Y113.114 E28.48544
G1 X96.682 Y112.879 E28.61703
G1 X95.675 Y112.577 E28.73950
G1 X94.694 Y112.195 E28.86189
G1 X93.748 Y111.738 E28.98421
G1 X92.840 Y111.208 E29.10660
G1 X92.403 Y110.916 E29.16780
G1 X91.813 Y110.481 E29.25312
G1 X91.011 Y109.801 E29.37557
G1 X90.630 Y109.437 E29.43681
G1 X90.100 Y108.880 E29.52636
G1 X89.384 Y108.011 E29.65736
G1 X88.785 Y107.147 E29.77972
G1 X88.255 Y106.239 E29.90213
G1 X87.799 Y105.292 E30.02451
G1 X87.419 Y104.311 E30.14695
G1 X87.259 Y103.811 E30.20804
G1 X87.067 Y103.097 E30.29403
G1 X86.863 Y102.065 E30.41648
G1 X86.791 Y101.544 E30.47772
G1 X86.724 Y100.778 E30.56726
G1 X86.705 Y99.657 E30.69767
G1 X86.774 Y98.608 E30.82006
G1 X86.925 Y97.568 E30.94238
G1 X87.158 Y96.542 E31.06485
G1 X87.471 Y95.540 E31.18707
G1 X87.658 Y95.047 E31.24836
G1 X87.954 Y94.365 E31.33494
G1 X88.437 Y93.431 E31.45739
G1 X88.993 Y92.537 E31.57984
G1 X89.617 Y91.690 E31.70230
G1 X89.954 Y91.286 E31.76354
G1 X90.476 Y90.718 E31.85333
G1 E31.25333 F3600.00000
G92 E0
G1 X102.973 Y103.325 F4500.000
G1 E0.60000 F3600.00000
G1 X102.722 Y103.534 E0.63798 F1200.000
G1 X102.262 Y103.845 E0.70264
G1 X101.975 Y104.000 E0.74063
G1 X101.462 Y104.214 E0.80529
G1 X101.150 Y104.310 E0.84327
G1 X100.605 Y104.419 E0.90793
G1 X100.281 Y104.452 E0.94591
G1 X99.725 Y104.452 E1.01057
G1 X99.400 Y104.420 E1.04855
G1 X98.856 Y104.311 E1.11322
G1 X98.544 Y104.216 E1.15120
G1 X98.031 Y104.002 E1.21586
G1 X97.743 Y103.847 E1.25384
G1 X97.283 Y103.537 E1.31850
G1 X97.031 Y103.329 E1.35648
G1 X96.641 Y102.934 E1.42114
G1 X96.435 Y102.680 E1.45913
G1 X96.130 Y102.216 E1.52379
G1 X95.978 Y101.927 E1.56177
G1 X95.770 Y101.412 E1.62643
G1 X95.678 Y101.099 E1.66441
G1 X95.575 Y100.553 E1.72907
G1 X95.546 Y100.228 E1.76706
G1 X95.552 Y99.673 E1.83172
G1 X95.590 Y99.329 E1.87195
G1 X95.657 Y98.983 E1.91295
G1 X95.742 Y98.675 E1.95021
G1 X95.951 Y98.131 E2.01800
G1 X96.100 Y97.834 E2.05666
G1 X96.267 Y97.561 E2.09393
G1 X96.616 Y97.095 E2.16171
G1 X96.828 Y96.865 E2.19804
G1 X97.243 Y96.494 E2.26286
G1 X97.522 Y96.291 E2.30309
G1 X97.822 Y96.107 E2.34401
G1 X98.119 Y95.956 E2.38283
G1 X98.638 Y95.753 E2.44766
G1 X98.971 Y95.659 E2.48792
G1 X100.029 Y95.452 E2.61346
G1 X101.215 Y95.709 E2.75470
G1 X101.526 Y95.809 E2.79265 F1200.000
G1 X102.035 Y96.031 E2.85731
G1 X102.320 Y96.190 E2.89529
G1 X102.775 Y96.508 E2.95995
G1 X103.023 Y96.720 E2.99794
G1 X103.407 Y97.121 E3.06260
G1 X103.609 Y97.378 E3.10058
G1 X103.907 Y97.847 E3.16524
G1 X104.054 Y98.138 E3.20322
G1 X104.254 Y98.657 E3.26788
G1 X104.341 Y98.971 E3.30587
G1 X104.435 Y99.519 E3.37053
G1 X104.460 Y99.863 E3.41075
G1 X104.457 Y100.196 E3.44943
G1 X104.397 Y100.749 E3.51424
G1 X104.327 Y101.088 E3.55447
G1 X104.233 Y101.407 E3.59315
G1 X104.025 Y101.923 E3.65796
G1 X103.874 Y102.212 E3.69594
G1 X103.569 Y102.676 E3.76061
G1 X103.364 Y102.930 E3.79859
G1 X103.015 Y103.283 E3.85627
G1 X103.484 Y103.941 F4500.000
G1 X103.203 Y104.175 E3.89887 F1200.000
G1 X102.677 Y104.530 E3.97275
G1 X102.320 Y104.723 E4.01995
G1 X101.734 Y104.967 E4.09382
G1 X101.347 Y105.086 E4.14102
G1 X100.724 Y105.211 E4.21490
G1 X100.321 Y105.252 E4.26210
G1 X99.686 Y105.252 E4.33597
G1 X99.282 Y105.212 E4.38317
G1 X98.660 Y105.088 E4.45705
G1 X98.272 Y104.969 E4.50425
G1 X97.686 Y104.725 E4.57812
G1 X97.329 Y104.533 E4.62532
G1 X96.803 Y104.178 E4.69920
G1 X96.491 Y103.919 E4.74640
G1 X96.044 Y103.468 E4.82027
G1 X95.789 Y103.153 E4.86747
G1 X95.440 Y102.623 E4.94135
G1 X95.251 Y102.264 E4.98854
G1 X95.014 Y101.676 E5.06242
G1 X94.899 Y101.286 E5.10962
G1 X94.782 Y100.663 E5.18350
G1 X94.746 Y100.259 E5.23069
G1 X94.753 Y99.624 E5.30457
G1 X94.799 Y99.209 E5.35313
G1 X94.877 Y98.801 E5.40154
G1 X94.981 Y98.424 E5.44704
G1 X95.219 Y97.806 E5.52407
G1 X95.400 Y97.446 E5.57105
G1 X95.603 Y97.112 E5.61655
G1 X96.001 Y96.583 E5.69359
G1 X96.266 Y96.295 E5.73915
G1 X96.740 Y95.871 E5.81312
G1 X97.077 Y95.626 E5.86169
G1 X97.431 Y95.409 E5.91003
G1 X97.792 Y95.225 E5.95711
G1 X98.384 Y94.994 E6.03109
G1 X98.785 Y94.881 E6.07967
G1 X100.037 Y94.635 E6.22817
G1 X101.423 Y94.935 E6.39324
G1 X101.809 Y95.060 E6.44043 F1200.000
G1 X102.391 Y95.313 E6.51430
G1 X102.745 Y95.511 E6.56150
G1 X103.265 Y95.875 E6.63538
G1 X103.573 Y96.138 E6.68258
G1 X104.012 Y96.597 E6.75645
G1 X104.263 Y96.916 E6.80365
G1 X104.603 Y97.451 E6.87753
G1 X104.786 Y97.813 E6.92472
G1 X105.014 Y98.406 E6.99860
G1 X105.122 Y98.797 E7.04580
G1 X105.230 Y99.422 E7.11968
G1 X105.260 Y99.838 E7.16824
G1 X105.256 Y100.242 E7.21523
G1 X105.189 Y100.874 E7.28920
G1 X105.104 Y101.282 E7.33776
G1 X104.990 Y101.670 E7.38475
G1 X104.752 Y102.259 E7.45872
G1 X104.564 Y102.618 E7.50591
G1 X104.216 Y103.149 E7.57979
G1 X103.961 Y103.464 E7.62699
G1 X103.529 Y103.901 E7.69847
G1 X100.563 Y93.930 F4500.000
G1 X101.631 Y94.162 E7.82571 F1200.000
G1 X102.093 Y94.311 E7.88212
G1 X102.747 Y94.596 E7.96521
G1 X103.170 Y94.833 E8.02162
G1 X103.755 Y95.241 E8.10472
G1 X104.124 Y95.556 E8.16113
G1 X104.617 Y96.072 E8.24422
G1 X104.917 Y96.453 E8.30064
G1 X105.299 Y97.056 E8.38373
G1 X105.518 Y97.489 E8.44014
G1 X105.775 Y98.155 E8.52324
G1 X105.904 Y98.622 E8.57965
G1 X106.025 Y99.325 E8.66274
G1 X106.060 Y99.813 E8.71964
G1 X106.056 Y100.288 E8.77494
G1 X105.980 Y100.998 E8.85806
G1 X105.880 Y101.477 E8.91496
G1 X105.746 Y101.933 E8.97026
G1 X105.479 Y102.595 E9.05339
G1 X105.254 Y103.024 E9.10980
G1 X104.862 Y103.621 E9.19289
G1 X104.558 Y103.998 E9.24931
G1 X104.056 Y104.506 E9.33240
G1 X103.683 Y104.815 E9.38881
G1 X103.091 Y105.215 E9.47190
G1 X102.665 Y105.445 E9.52832
G1 X102.006 Y105.721 E9.61141
G1 X101.543 Y105.863 E9.66782
G1 X100.843 Y106.003 E9.75092
G1 X100.361 Y106.051 E9.80733
G1 X99.647 Y106.052 E9.89042
G1 X99.165 Y106.004 E9.94684
G1 X98.465 Y105.864 E10.02993
G1 X98.001 Y105.723 E10.08634
G1 X97.342 Y105.448 E10.16944
G1 X96.915 Y105.218 E10.22585
G1 X96.323 Y104.819 E10.30894
G1 X95.950 Y104.510 E10.36536
G1 X95.448 Y104.003 E10.44845
G1 X95.143 Y103.626 E10.50486
G1 X94.750 Y103.030 E10.58796
G1 X94.525 Y102.601 E10.64437
G1 X94.257 Y101.939 E10.72746
G1 X94.121 Y101.474 E10.78388
G1 X93.988 Y100.772 E10.86697
G1 X93.946 Y100.290 E10.92338
G1 X93.954 Y99.576 E11.00647
G1 X94.007 Y99.090 E11.06337
G1 X94.098 Y98.619 E11.11917
G1 X94.220 Y98.174 E11.17290
G1 X94.486 Y97.482 E11.25919
G1 X94.700 Y97.058 E11.31449
G1 X94.940 Y96.663 E11.36822
G1 X95.385 Y96.070 E11.45451
G1 X95.704 Y95.724 E11.50931
G1 X96.237 Y95.248 E11.59243
G1 X96.632 Y94.960 E11.64933
G1 X97.040 Y94.710 E11.70511
G1 X97.464 Y94.494 E11.76044
G1 X98.129 Y94.234 E11.84357
G1 X98.600 Y94.102 E11.90047
G1 X99.438 Y93.937 E11.99991
G1 X99.438 Y92.938 E12.11628
G1 X100.563 Y92.938 E12.24723
G1 X100.563 Y93.870 E12.35579
G1 X100.506 Y94.326 F4500.000
G1 X100.189 Y95.947 F4500.000
G1 X104.030 Y99.788 E13.03285 F1200.000
G1 X103.971 Y100.939 E13.17660
G1 X99.061 Y96.030 E14.04203
G1 X98.153 Y96.333 E14.16135
G1 X103.668 Y101.848 E15.13348
G1 X103.199 Y102.590 E15.24292
G1 X97.410 Y96.802 E16.26333
G1 X96.807 Y97.410 E16.37010
G1 X102.593 Y103.196 E17.38997
G1 X101.850 Y103.664 E17.49946
G1 X96.336 Y98.150 E18.47147
G1 X96.031 Y99.057 E18.59070
G1 X100.939 Y103.965 E19.45581
G1 X99.792 Y104.029 E19.59903
G1 X95.972 Y100.209 E20.27233
G1 X96.799 Y102.247 F4500.000
G1 X97.758 Y103.206 E20.44134 F1200.000
G1 X103.186 Y97.732 F4500.000
G1 X102.258 Y96.804 E20.60487 F1200.000
M106 S209.1
M140 S60 ; wait for bed temperature to be reached
G1 Z0.550 F4500.000
G1 X100.463 Y94.396 F4500.000
G1 X101.494 Y94.619 E20.63621 F480.000
G1 X101.931 Y94.760 E20.64984 F480.000
G1 X102.522 Y95.017 E20.66899
G1 X102.923 Y95.241 E20.68262
G1 X103.452 Y95.610 E20.70177
G1 X103.801 Y95.908 E20.71540
G1 X104.248 Y96.374 E20.73455
G1 X104.531 Y96.735 E20.74818
G1 X104.877 Y97.279 E20.76733
G1 X105.085 Y97.689 E20.78097
G1 X105.317 Y98.291 E20.80011
G1 X105.440 Y98.733 E20.81375
G1 X105.549 Y99.369 E20.83290
G1 X105.583 Y99.834 E20.84677
G1 X105.579 Y100.267 E20.85960
G1 X105.511 Y100.910 E20.87879
G1 X105.416 Y101.367 E20.89266
G1 X105.294 Y101.782 E20.90550
G1 X105.052 Y102.381 E20.92469
G1 X104.840 Y102.788 E20.93832
G1 X104.486 Y103.327 E20.95747
G1 X104.197 Y103.685 E20.97111
G1 X103.744 Y104.144 E20.99026
G1 X103.392 Y104.438 E21.00389
G1 X102.857 Y104.799 E21.02304
G1 X102.453 Y105.017 E21.03667
G1 X101.859 Y105.266 E21.05582
G1 X101.420 Y105.402 E21.06945
G1 X100.787 Y105.529 E21.08860
G1 X100.331 Y105.575 E21.10223
G1 X99.686 Y105.576 E21.12138
G1 X99.229 Y105.531 E21.13502
G1 X98.596 Y105.405 E21.15416
G1 X98.157 Y105.272 E21.16780
G1 X97.562 Y105.024 E21.18695
G1 X97.157 Y104.807 E21.20058
G1 X96.622 Y104.447 E21.21973
G1 X96.268 Y104.154 E21.23336
G1 X95.814 Y103.696 E21.25251
G1 X95.524 Y103.340 E21.26614
G1 X95.170 Y102.801 E21.28529
G1 X94.955 Y102.395 E21.29892
G1 X94.713 Y101.797 E21.31807
G1 X94.583 Y101.357 E21.33171
G1 X94.463 Y100.723 E21.35085
G1 X94.422 Y100.266 E21.36449
