; generated by Slic3r 1.2.9 on 2016-05-06 at 10:33:52

; external perimeters extrusion width = 0.40mm
; perimeters extrusion width = 0.40mm
; infill extrusion width = 0.67mm
; solid infill extrusion width = 0.67mm
; top infill extrusion width = 0.40mm

M107
M190 S55 ; set bed temperature
M104 S195 ; set temperature
G28 ; home all axes
G1 Z5 F5000 ; lift nozzle

;Pre-Extrude
;G0 F9000 X0 Y0 Z0.300
;G1 F1200 X2.000 Y80.000 E2.000 ;Extrude strip 
;G92 E0                  ;zero the extruded length again

M109 S195 ; wait for temperature to be reached
G21 ; set units to millimeters
G90 ; use absolute coordinates
M82 ; use absolute distances for extrusion
G92 E0
G1 Z0.350 F4500.000
G1 E-2.00000 F2400.00000
G92 E0
G1 X81.776 Y72.014 F4500.000
G1 E2.00000 F2400.00000
G1 X83.933 Y70.589 E2.30082 F1200.000
G1 X87.429 Y69.827 E2.71738
G1 X112.571 Y69.827 E5.64372
G1 X115.125 Y70.225 E5.94454
G1 X117.437 Y71.380 E6.24537 F1200.000
G1 X119.845 Y74.027 E6.66192
G1 X132.416 Y95.800 E9.58826
G1 X133.348 Y98.211 E9.88909
G1 X133.504 Y100.790 E10.18991
G1 X132.416 Y104.200 E10.60646
G1 X119.845 Y125.973 E13.53280
G1 X118.224 Y127.986 E13.83363
G1 X116.067 Y129.411 E14.13445
G1 X112.571 Y130.173 E14.55101
G1 X87.429 Y130.173 E17.47735
G1 X84.875 Y129.775 E17.77817
G1 X82.563 Y128.620 E18.07899
G1 X80.155 Y125.973 E18.49555
G1 X67.584 Y104.200 E21.42189
G1 X66.652 Y101.789 E21.72272
G1 X66.496 Y99.210 E22.02354
G1 X67.584 Y95.800 E22.44009
G1 X80.155 Y74.027 E25.36643
G1 X81.738 Y72.061 E25.66027
G1 X82.403 Y72.527 F4500.000
G1 X84.487 Y71.220 E25.94660 F1200.000
G1 X87.429 Y70.627 E26.29598
G1 X112.571 Y70.627 E29.22233
G1 X114.996 Y71.024 E29.50838
G1 X117.168 Y72.175 E29.79443 F1200.000
G1 X119.152 Y74.427 E30.14381
G1 X131.723 Y96.200 E33.07015
G1 X132.592 Y98.499 E33.35620
G1 X132.681 Y100.955 E33.64226
G1 X131.723 Y103.800 E33.99164
G1 X119.152 Y125.573 E36.91798
G1 X117.596 Y127.475 E37.20403
G1 X115.513 Y128.780 E37.49008
G1 X112.571 Y129.373 E37.83947
G1 X87.429 Y129.373 E40.76581
G1 X85.004 Y128.976 E41.05186
G1 X82.832 Y127.825 E41.33791
G1 X80.848 Y125.573 E41.68729
G1 X68.277 Y103.800 E44.61364
G1 X67.408 Y101.501 E44.89969
G1 X67.319 Y99.045 E45.18574
G1 X68.277 Y96.200 E45.53512
G1 X80.848 Y74.427 E48.46146
G1 X82.365 Y72.574 E48.74024
G1 X83.025 Y73.047 F4500.000
G1 X85.032 Y71.864 E49.01131 F1200.000
G1 X87.429 Y71.427 E49.29498
G1 X112.571 Y71.427 E52.22132
G1 X114.860 Y71.824 E52.49179
G1 X116.883 Y72.969 E52.76227 F1200.000
G1 X118.460 Y74.827 E53.04594
G1 X131.030 Y96.600 E55.97228
G1 X131.831 Y98.781 E56.24275
G1 X131.851 Y101.105 E56.51322
G1 X131.030 Y103.400 E56.79689
G1 X118.460 Y125.173 E59.72323
G1 X116.971 Y126.958 E59.99371
G1 X114.968 Y128.136 E60.26418
G1 X112.571 Y128.573 E60.54785
G1 X87.429 Y128.573 E63.47419
G1 X85.140 Y128.176 E63.74466
G1 X83.117 Y127.031 E64.01514
G1 X81.540 Y125.173 E64.29881
G1 X68.970 Y103.400 E67.22515
G1 X68.169 Y101.219 E67.49562
G1 X68.149 Y98.895 E67.76610
G1 X68.970 Y96.600 E68.04976
G1 X81.540 Y74.827 E70.97611
G1 X82.987 Y73.093 E71.23896
G1 E69.23896 F2400.00000
G92 E0
G1 X104.002 Y103.684 F4500.000
G1 E2.00000 F2400.00000
G1 X103.341 Y104.292 E2.10456 F1200.000
G1 X102.589 Y104.783 E2.20911
G1 X101.766 Y105.144 E2.31367
G1 X100.895 Y105.365 E2.41823
G1 X100.000 Y105.439 E2.52278
G1 X99.105 Y105.365 E2.62734
G1 X98.234 Y105.144 E2.73190
G1 X97.411 Y104.783 E2.83645
G1 X96.659 Y104.292 E2.94101
G1 X95.998 Y103.684 E3.04557
G1 X95.447 Y102.975 E3.15012
G1 X95.019 Y102.185 E3.25468
G1 X94.727 Y101.335 E3.35924
G1 X94.580 Y100.449 E3.46380
G1 X94.580 Y99.551 E3.56835
G1 X94.727 Y98.665 E3.67291
G1 X95.019 Y97.815 E3.77747
G1 X95.447 Y97.025 E3.88202
G1 X95.998 Y96.316 E3.98658
G1 X96.659 Y95.708 E4.09114
G1 X97.411 Y95.217 E4.19569
G1 X98.234 Y94.856 E4.30025
G1 X99.105 Y94.635 E4.40481
G1 X99.849 Y94.574 E4.49169
G1 X100.000 Y94.561 E4.50936 F1200.000
G1 X100.895 Y94.635 E4.61392
G1 X101.766 Y94.856 E4.71848
G1 X102.589 Y95.217 E4.82303
G1 X103.341 Y95.708 E4.92759
G1 X104.002 Y96.316 E5.03215
G1 X104.553 Y97.025 E5.13670
G1 X104.981 Y97.815 E5.24126
G1 X105.273 Y98.665 E5.34582
G1 X105.420 Y99.551 E5.45038
G1 X105.420 Y100.449 E5.55493
G1 X105.273 Y101.335 E5.65949
G1 X104.981 Y102.185 E5.76405
G1 X104.553 Y102.975 E5.86860
G1 X104.038 Y103.636 E5.96618
G1 X112.318 Y121.336 F4500.000
G1 X87.682 Y121.336 E8.83372 F1200.000
G1 X75.364 Y100.000 E11.70126
G1 X87.682 Y78.664 E14.56880
G1 X112.318 Y78.664 E17.43634
G1 X124.636 Y100.000 E20.30388
G1 X112.348 Y121.284 E23.16444
G1 X123.975 Y100.449 F4500.000
G1 X102.601 Y79.074 E26.73387 F1200.000
G1 X101.453 Y79.074 E26.86939
G1 X123.555 Y101.176 E30.56033
G1 X123.135 Y101.904 E30.65954
G1 X100.306 Y79.074 E34.47198
G1 X99.158 Y79.074 E34.60750
G1 X122.715 Y102.631 E38.54145
G1 X122.295 Y103.359 E38.64065
G1 X98.010 Y79.074 E42.69610
G1 X96.863 Y79.074 E42.83162
G1 X121.875 Y104.087 E47.00857
G1 X121.455 Y104.814 E47.10778
G1 X95.715 Y79.074 E51.40623
G1 X94.568 Y79.074 E51.54175
G1 X121.035 Y105.542 E55.96170
G1 X120.615 Y106.269 E56.06091
G1 X93.420 Y79.074 E60.60237
G1 X92.272 Y79.074 E60.73789
G1 X120.195 Y106.997 E65.40085
G1 X119.775 Y107.725 E65.50005
G1 X91.125 Y79.074 E70.28452
G1 X89.977 Y79.074 E70.42004
G1 X119.355 Y108.452 E75.32600
G1 X118.935 Y109.180 E75.42521
G1 X88.829 Y79.074 E80.45268
G1 X87.786 Y79.179 E80.57645
G1 X118.515 Y109.907 E85.70793
G1 X118.094 Y110.635 E85.80714
G1 X105.591 Y98.132 E87.89514
G1 X105.831 Y99.519 E88.06136
G1 X117.674 Y111.362 E90.03922
G1 X117.254 Y112.090 E90.13843
G1 X105.782 Y100.618 E92.05424
G1 X105.580 Y101.563 E92.16837
G1 X116.834 Y112.818 E94.04786
G1 X116.414 Y113.545 E94.14706
G1 X105.265 Y102.396 E96.00899
G1 X104.859 Y103.138 E96.10887
G1 X115.994 Y114.273 E97.96832
G1 X115.574 Y115.000 E98.06753
G1 X104.357 Y103.783 E99.94071
G1 X103.778 Y104.352 E100.03654
G1 X115.154 Y115.728 E101.93629
G1 X114.734 Y116.455 E102.03550
G1 X103.124 Y104.846 E103.97428
G1 X102.390 Y105.260 E104.07376
G1 X114.314 Y117.183 E106.06493
G1 X113.894 Y117.911 E106.16414
G1 X101.564 Y105.581 E108.22314
G1 X100.621 Y105.786 E108.33708
G1 X113.474 Y118.638 E110.48340
G1 X113.054 Y119.366 E110.58261
G1 X99.513 Y105.825 E112.84388
G1 X98.130 Y105.589 E113.00956
G1 X112.634 Y120.093 E115.43166
G1 X112.214 Y120.821 E115.53086
G1 X81.485 Y90.093 E120.66235
G1 X81.065 Y90.820 E120.76155
G1 X111.171 Y120.926 E125.78902
G1 X110.023 Y120.926 E125.92454
G1 X80.645 Y91.548 E130.83050
G1 X80.225 Y92.276 E130.92971
G1 X108.875 Y120.926 E135.71417
G1 X107.728 Y120.926 E135.84969
G1 X79.805 Y93.003 E140.51264
G1 X79.385 Y93.731 E140.61185
G1 X106.580 Y120.926 E145.15330
G1 X105.432 Y120.926 E145.28882
G1 X78.965 Y94.458 E149.70877
G1 X78.545 Y95.186 E149.80798
G1 X104.285 Y120.926 E154.10643
G1 X103.137 Y120.926 E154.24195
G1 X78.125 Y95.913 E158.41890
G1 X77.705 Y96.641 E158.51810
G1 X101.989 Y120.926 E162.57355
G1 X100.842 Y120.926 E162.70907
G1 X77.285 Y97.369 E166.64301
G1 X76.865 Y98.096 E166.74222
G1 X99.694 Y120.926 E170.55466
G1 X98.547 Y120.926 E170.69017
G1 X76.445 Y98.824 E174.38111
G1 X76.025 Y99.551 E174.48032
G1 X97.399 Y120.926 E178.04975
G1 X96.251 Y120.926 E178.18527
G1 X76.830 Y101.504 E181.42857
G1 X78.398 Y104.220 F4500.000
G1 X95.104 Y120.926 E184.21842 F1200.000
G1 X93.956 Y120.926 E184.35394
G1 X79.965 Y106.935 E186.69033
G1 X81.533 Y109.650 F4500.000
G1 X92.808 Y120.926 E188.57327 F1200.000
G1 X91.661 Y120.926 E188.70878
G1 X83.101 Y112.366 E190.13827
G1 X84.668 Y115.081 F4500.000
G1 X90.513 Y120.926 E191.11430 F1200.000
G1 X89.365 Y120.926 E191.24982
G1 X86.236 Y117.796 E191.77240
G1 X87.804 Y120.512 F4500.000
G1 X88.218 Y120.926 E191.84152 F1200.000
G1 X94.409 Y101.869 F4500.000
G1 X81.906 Y89.365 E193.92953 F1200.000
G1 X82.326 Y88.638 E194.02874
G1 X94.169 Y100.481 E196.00661
G1 X94.218 Y99.382 E196.13653
G1 X82.746 Y87.910 E198.05234
G1 X83.166 Y87.182 E198.15155
G1 X94.420 Y98.437 E200.03104
G1 X94.735 Y97.604 E200.13617
G1 X83.586 Y86.455 E201.99810
G1 X84.006 Y85.727 E202.09730
G1 X95.141 Y96.862 E203.95675
G1 X95.643 Y96.217 E204.05332
G1 X84.426 Y85.000 E205.92651
G1 X84.846 Y84.272 E206.02571
G1 X96.222 Y95.648 E207.92546
G1 X96.876 Y95.154 E208.02221
G1 X85.266 Y83.545 E209.96099
G1 X85.686 Y82.817 E210.06020
G1 X97.610 Y94.740 E212.05137
G1 X98.436 Y94.419 E212.15605
G1 X86.106 Y82.089 E214.21505
G1 X86.526 Y81.362 E214.31426
G1 X99.379 Y94.214 E216.46057
G1 X100.487 Y94.175 E216.59154
G1 X86.946 Y80.634 E218.85280
G1 X87.366 Y79.907 E218.95201
G1 X101.870 Y94.411 E221.37411
G1 X115.332 Y84.919 F4500.000
G1 X109.487 Y79.074 E222.35015 F1200.000
G1 X108.339 Y79.074 E222.48567
G1 X116.899 Y87.634 E223.91517
G1 X118.467 Y90.350 F4500.000
G1 X107.192 Y79.074 E225.79812 F1200.000
G1 X106.044 Y79.074 E225.93363
G1 X120.035 Y93.065 E228.27004
G1 X121.602 Y95.781 F4500.000
G1 X104.896 Y79.074 E231.05990 F1200.000
G1 X103.749 Y79.074 E231.19541
G1 X123.170 Y98.496 E234.43872
G1 X113.764 Y82.204 F4500.000
G1 X110.635 Y79.074 E234.96132 F1200.000
G1 X111.782 Y79.074 E235.09683
G1 X112.196 Y79.488 E235.16597
G1 Z0.550 F4500.000
G1 E233.16597 F2400.00000
G92 E0
G1 X102.475 Y104.574 F4500.000
G1 E2.00000 F2400.00000
G1 X101.689 Y104.919 E2.02550 F900.000
G1 X100.856 Y105.130 E2.05101
G1 X100.000 Y105.201 E2.07651
G1 X99.144 Y105.130 E2.10201
G1 X98.311 Y104.919 E2.12751
G1 X97.525 Y104.574 E2.15302
G1 X96.806 Y104.104 E2.17852
G1 X96.174 Y103.522 E2.20402
G1 X95.646 Y102.845 E2.22953
G1 X95.237 Y102.089 E2.25503
G1 X94.958 Y101.277 E2.28053
G1 X94.817 Y100.429 E2.30604
G1 X94.817 Y99.571 E2.33154
G1 X94.958 Y98.723 E2.35704
G1 X95.237 Y97.911 E2.38254
G1 X95.646 Y97.155 E2.40805
G1 X96.174 Y96.478 E2.43355
G1 X96.806 Y95.896 E2.45905
G1 X97.525 Y95.426 E2.48456
G1 X98.311 Y95.081 E2.51006
G1 X99.144 Y94.870 E2.53556 F900.000
G1 X100.000 Y94.799 E2.56107
G1 X100.856 Y94.870 E2.58657
G1 X101.689 Y95.081 E2.61207
G1 X102.475 Y95.426 E2.63757
G1 X103.194 Y95.896 E2.66308
G1 X103.826 Y96.478 E2.68858
G1 X104.354 Y97.155 E2.71408
G1 X104.763 Y97.911 E2.73959
G1 X105.042 Y98.723 E2.76509
G1 X105.183 Y99.571 E2.79059
G1 X105.183 Y100.429 E2.81610
G1 X105.042 Y101.277 E2.84160
G1 X104.763 Y102.089 E2.86710
G1 X104.354 Y102.845 E2.89260
G1 X103.826 Y103.522 E2.91811
G1 X103.194 Y104.104 E2.94361
G1 X102.525 Y104.541 E2.96733
G1 X112.524 Y121.692 F4500.000
G1 X87.476 Y121.692 E3.71103 F900.000
G1 X74.952 Y100.000 E4.45472
G1 X87.476 Y78.308 E5.19842
G1 X112.524 Y78.308 E5.94211
G1 X125.048 Y100.000 E6.68580
G1 X112.554 Y121.640 E7.42772
G1 X112.157 Y121.476 F4500.000
G1 X112.498 Y121.134 E7.45316 F1200.000
G1 X111.260 Y121.476 E7.52089
G1 X113.724 Y119.012 E7.70458
G1 X114.949 Y116.890 F4500.000
G1 X110.363 Y121.476 E8.04653 F1200.000
G1 X109.467 Y121.476 E8.09383
G1 X116.174 Y114.768 E8.59403
G1 X117.399 Y112.646 F4500.000
G1 X108.570 Y121.476 E9.25248 F1200.000
G1 X107.673 Y121.476 E9.29977
G1 X118.624 Y110.524 E10.11647
G1 X119.849 Y108.402 F4500.000
G1 X106.776 Y121.476 E11.09143 F1200.000
G1 X105.879 Y121.476 E11.13872
G1 X121.074 Y106.280 E12.27192
G1 X122.300 Y104.158 F4500.000
G1 X104.982 Y121.476 E13.56338 F1200.000
G1 X104.085 Y121.476 E13.61067
G1 X123.525 Y102.036 E15.06038
G1 X124.750 Y99.914 F4500.000
G1 X103.188 Y121.476 E16.66834 F1200.000
G1 X102.292 Y121.476 E16.71563
G1 X124.456 Y99.311 E18.36858
G1 X124.128 Y98.742 E18.40320
G1 X101.395 Y121.476 E20.09855
G1 X100.498 Y121.476 E20.14585
G1 X123.800 Y98.174 E21.88360
G1 X123.471 Y97.605 E21.91823
G1 X99.601 Y121.476 E23.69838
G1 X98.704 Y121.476 E23.74568
G1 X123.143 Y97.036 E25.56824
G1 X122.815 Y96.468 E25.60286
G1 X97.807 Y121.476 E27.46783
G1 X96.910 Y121.476 E27.51512
G1 X122.487 Y95.899 E29.42249
G1 X122.158 Y95.331 E29.45711
G1 X96.013 Y121.476 E31.40688
G1 X95.117 Y121.476 E31.45418
G1 X121.830 Y94.762 E33.44635
G1 X121.502 Y94.193 E33.48098
G1 X94.220 Y121.476 E35.51555
G1 X93.323 Y121.476 E35.56285
G1 X121.174 Y93.625 E37.63983
G1 X120.845 Y93.056 E37.67445
G1 X92.426 Y121.476 E39.79384
G1 X91.529 Y121.476 E39.84113
G1 X120.517 Y92.488 E42.00292
G1 X120.189 Y91.919 E42.03754
G1 X90.632 Y121.476 E44.24173
G1 X89.735 Y121.476 E44.28903
G1 X119.860 Y91.350 E46.53562
G1 X119.532 Y90.782 E46.57024
G1 X88.838 Y121.476 E48.85924
G1 X87.942 Y121.476 E48.90654
G1 X119.204 Y90.213 E51.23794
G1 X118.876 Y89.645 E51.27256
G1 X87.362 Y121.159 E53.62272
G1 X87.033 Y120.590 E53.65734
G1 X103.061 Y104.563 E54.85260
G1 X101.498 Y105.228 F4500.000
G1 X86.705 Y120.021 E55.95581 F1200.000
G1 X86.377 Y119.453 E55.99044
G1 X100.437 Y105.393 E57.03896
G1 X99.562 Y105.371 E57.08509
G1 X86.049 Y118.884 E58.09287
G1 X85.720 Y118.316 E58.12749
G1 X98.800 Y105.236 E59.10290
G1 X98.116 Y105.023 E59.14067
G1 X85.392 Y117.747 E60.08956
G1 X85.064 Y117.178 E60.12418
G1 X97.493 Y104.750 E61.05107
G1 X96.950 Y104.395 E61.08524
G1 X84.735 Y116.610 E61.99613
G1 X84.407 Y116.041 E62.03076
G1 X96.451 Y103.997 E62.92896
G1 X95.995 Y103.557 E62.96241
G1 X84.079 Y115.473 E63.85103
G1 X83.751 Y114.904 E63.88566
G1 X95.602 Y103.052 E64.76949
G1 X95.264 Y102.494 E64.80393
G1 X83.422 Y114.335 E65.68705
G1 X83.094 Y113.767 E65.72167
G1 X94.977 Y101.884 E66.60781
G1 X94.749 Y101.215 E66.64510
G1 X82.766 Y113.198 E67.53878
G1 X82.438 Y112.630 E67.57340
G1 X94.621 Y100.446 E68.48199
G1 X94.601 Y99.569 E68.52823
G1 X82.109 Y112.061 E69.45980
G1 X81.781 Y111.492 E69.49443
G1 X94.748 Y98.525 E70.46147
G1 X95.415 Y96.962 F4500.000
G1 X81.453 Y110.924 E71.50269 F1200.000
G1 X81.124 Y110.355 E71.53731
G1 X112.638 Y78.841 E73.88748
G1 X112.967 Y79.410 E73.92210
G1 X96.939 Y95.438 E75.11736
G1 X98.501 Y94.772 F4500.000
G1 X113.295 Y79.979 E76.22059 F1200.000
G1 X113.623 Y80.547 E76.25521
G1 X99.563 Y94.607 E77.30373
G1 X100.438 Y94.629 E77.34987
G1 X113.951 Y81.116 E78.35764
G1 X114.280 Y81.684 E78.39226
G1 X101.200 Y94.764 E79.36768
G1 X101.884 Y94.977 E79.40545
G1 X114.608 Y82.253 E80.35434
G1 X114.936 Y82.822 E80.38896
G1 X102.507 Y95.250 E81.31585
G1 X103.050 Y95.605 E81.35002
G1 X115.265 Y83.390 E82.26092
G1 X115.593 Y83.959 E82.29554
G1 X103.549 Y96.003 E83.19374
G1 X104.005 Y96.443 E83.22719
G1 X115.921 Y84.527 E84.11582
G1 X116.249 Y85.096 E84.15044
G1 X104.398 Y96.947 E85.03427
G1 X104.736 Y97.506 E85.06872
G1 X116.578 Y85.665 E85.95183
G1 X116.906 Y86.233 E85.98645
G1 X105.023 Y98.116 E86.87259
G1 X105.251 Y98.785 E86.90988
G1 X117.234 Y86.802 E87.80356
G1 X117.562 Y87.370 E87.83818
G1 X105.379 Y99.554 E88.74677
G1 X105.399 Y100.431 E88.79301
G1 X117.891 Y87.939 E89.72458
G1 X118.219 Y88.507 E89.75920
G1 X105.252 Y101.475 E90.72624
G1 X104.585 Y103.038 F4500.000
G1 X118.547 Y89.076 E91.76746 F1200.000
G1 X112.058 Y78.524 F4500.000
G1 X80.796 Y109.787 E94.09886 F1200.000
G1 X80.468 Y109.218 E94.13348
G1 X111.162 Y78.524 E96.42247
G1 X110.265 Y78.524 E96.46977
G1 X80.140 Y108.649 E98.71636
G1 X79.811 Y108.081 E98.75098
G1 X109.368 Y78.524 E100.95517
G1 X108.471 Y78.524 E101.00246
G1 X79.483 Y107.512 E103.16425
G1 X79.155 Y106.944 E103.19887
G1 X107.574 Y78.524 E105.31825
G1 X106.677 Y78.524 E105.36555
G1 X78.826 Y106.375 E107.44253
G1 X78.498 Y105.806 E107.47715
G1 X105.780 Y78.524 E109.51172
G1 X104.883 Y78.524 E109.55902
G1 X78.170 Y105.238 E111.55119
G1 X77.842 Y104.669 E111.58581
G1 X103.987 Y78.524 E113.53558
G1 X103.090 Y78.524 E113.58287
G1 X77.513 Y104.101 E115.49024
G1 X77.185 Y103.532 E115.52486
G1 X102.193 Y78.524 E117.38982
G1 X101.296 Y78.524 E117.43712
G1 X76.857 Y102.964 E119.25968
G1 X76.528 Y102.395 E119.29430
G1 X100.399 Y78.524 E121.07445
G1 X99.502 Y78.524 E121.12175
G1 X76.200 Y101.826 E122.85950
G1 X75.872 Y101.258 E122.89412
G1 X98.605 Y78.524 E124.58947
G1 X97.708 Y78.524 E124.63676
G1 X75.544 Y100.689 E126.28971
G1 X75.250 Y100.086 E126.32509
G1 X96.812 Y78.524 E127.93304
G1 X95.915 Y78.524 E127.98033
G1 X76.475 Y97.964 E129.43003
G1 X77.700 Y95.842 F4500.000
G1 X95.018 Y78.524 E130.72147 F1200.000
G1 X94.121 Y78.524 E130.76877
G1 X78.926 Y93.720 E131.90196
G1 X80.151 Y91.598 F4500.000
G1 X93.224 Y78.524 E132.87690 F1200.000
G1 X92.327 Y78.524 E132.92419
G1 X81.376 Y89.476 E133.74088
G1 X82.601 Y87.354 F4500.000
