; generated by Slic3r 1.2.9 on 2016-04-26 at 22:08:33

; external perimeters extrusion width = 0.40mm
; perimeters extrusion width = 0.40mm
; infill extrusion width = 0.67mm
; solid infill extrusion width = 0.67mm
; top infill extrusion width = 0.40mm

M107
M190 S55 ; set bed temperature
M104 S195 ; set temperature
G28 ; home all axes
G1 Z5 F5000 ; lift nozzle

;Pre-Extrude
;G0 F9000 X0 Y0 Z0.300
;G1 F1200 X2.000 Y80.000 E2.000 ;Extrude strip 
;G92 E0                  ;zero the extruded length again

M109 S195 ; wait for temperature to be reached
G21 ; set units to millimeters
G90 ; use absolute coordinates
M82 ; use absolute distances for extrusion
G92 E0
G1 Z0.350 F4500.000
G1 E-2.00000 F2400.00000
G92 E0
G1 X83.643 Y86.672 F4500.000
G1 E2.00000 F2400.00000
G1 X90.075 Y81.275 E2.97726 F1200.000
G1 X91.124 Y80.524 E3.12740
G1 X92.816 Y79.712 E3.34585
G1 X94.512 Y79.289 E3.54929
G1 X95.802 Y79.191 E3.69988
G1 X104.198 Y79.191 E4.67714
G1 X105.363 Y79.272 E4.81307
G1 X105.488 Y79.289 E4.82776 F1200.000
G1 X107.301 Y79.755 E5.04568
G1 X108.876 Y80.524 E5.24965
G1 X109.925 Y81.275 E5.39979
G1 X116.357 Y86.672 E6.37706
G1 X117.280 Y87.576 E6.52746
G1 X118.309 Y88.992 E6.73122
G1 X119.084 Y90.701 E6.94965
G1 X119.404 Y91.950 E7.09967
G1 X120.862 Y100.218 E8.07693
G1 X120.988 Y101.505 E8.22745
G1 X120.846 Y103.368 E8.44484
G1 X120.317 Y105.168 E8.66332
G1 X119.803 Y106.220 E8.79951
G1 X115.605 Y113.491 E9.77677
G1 X114.877 Y114.556 E9.92692
G1 X113.568 Y115.895 E10.14489
G1 X112.007 Y116.932 E10.36300
G1 X110.937 Y117.409 E10.49935
G1 X103.047 Y120.280 E11.47661
G1 X101.804 Y120.628 E11.62681
G1 X100.059 Y120.811 E11.83109
G1 X98.196 Y120.628 E12.04902
G1 X96.953 Y120.280 E12.19922
G1 X93.964 Y119.193 E12.56938
G1 X89.063 Y117.409 E13.17649
G1 X87.889 Y116.877 E13.32654
G1 X86.342 Y115.819 E13.54468
G1 X85.123 Y114.556 E13.74895
G1 X84.395 Y113.491 E13.89911
G1 X80.197 Y106.220 E14.87637
G1 X79.683 Y105.168 E15.01256
G1 X79.154 Y103.368 E15.23103
G1 X79.012 Y101.506 E15.44839
G1 X79.138 Y100.218 E15.59894
G1 X80.596 Y91.950 E16.57621
G1 X80.880 Y90.813 E16.71253
G1 X81.629 Y89.099 E16.93036
G1 X81.691 Y88.992 E16.94469
G1 X82.720 Y87.576 E17.14845
G1 X83.600 Y86.714 E17.29187
G1 X84.158 Y87.285 F4500.000
G1 X90.589 Y81.888 E18.26913 F1200.000
G1 X91.547 Y81.202 E18.40628
G1 X93.089 Y80.464 E18.60522
G1 X94.624 Y80.082 E18.78929
G1 X95.802 Y79.991 E18.92685
G1 X104.198 Y79.991 E19.90411
G1 X105.252 Y80.064 E20.02709
G1 X105.376 Y80.082 E20.04169 F1200.000
G1 X107.028 Y80.507 E20.24015
G1 X108.453 Y81.202 E20.42470
G1 X109.411 Y81.888 E20.56185
G1 X115.842 Y87.285 E21.53912
G1 X116.686 Y88.111 E21.67650
G1 X117.617 Y89.392 E21.86086
G1 X118.323 Y90.948 E22.05979
G1 X118.616 Y92.089 E22.19682
G1 X120.074 Y100.357 E23.17409
G1 X120.189 Y101.533 E23.31158
G1 X120.058 Y103.229 E23.50956
G1 X119.619 Y104.759 E23.69488
G1 X119.111 Y105.820 E23.83180
G1 X114.913 Y113.091 E24.80906
G1 X114.247 Y114.064 E24.94622
G1 X113.144 Y115.206 E25.13104
G1 X111.736 Y116.171 E25.32971
G1 X110.663 Y116.657 E25.46677
G1 X102.774 Y119.529 E26.44404
G1 X101.638 Y119.846 E26.58124
G1 X100.059 Y120.011 E26.76607
G1 X98.362 Y119.846 E26.96454
G1 X97.226 Y119.529 E27.10174
G1 X94.238 Y118.441 E27.47191
G1 X89.337 Y116.657 E28.07901
G1 X88.264 Y116.171 E28.21608
G1 X86.856 Y115.206 E28.41475
G1 X85.753 Y114.064 E28.59956
G1 X85.087 Y113.091 E28.73672
G1 X80.889 Y105.820 E29.71398
G1 X80.425 Y104.869 E29.83721
G1 X79.942 Y103.229 E30.03618
G1 X79.811 Y101.533 E30.23414
G1 X79.926 Y100.357 E30.37166
G1 X81.384 Y92.089 E31.34892
G1 X81.640 Y91.060 E31.47226
G1 X82.322 Y89.498 E31.67065
G1 X82.383 Y89.392 E31.68492
G1 X83.314 Y88.111 E31.86928
G1 X84.114 Y87.326 E31.99968
G1 X84.672 Y87.898 F4500.000
G1 X91.104 Y82.501 E32.97694 F1200.000
G1 X91.971 Y81.880 E33.10109
G1 X93.362 Y81.216 E33.28054
G1 X94.735 Y80.874 E33.44523
G1 X95.802 Y80.791 E33.56975
G1 X104.198 Y80.791 E34.54701
G1 X105.141 Y80.856 E34.65705
G1 X105.265 Y80.874 E34.67156 F1200.000
G1 X106.754 Y81.258 E34.85057
G1 X108.029 Y81.880 E35.01570
G1 X108.896 Y82.501 E35.13985
G1 X115.328 Y87.898 E36.11712
G1 X116.091 Y88.646 E36.24148
G1 X116.924 Y89.792 E36.40643
G1 X117.563 Y91.195 E36.58587
G1 X117.828 Y92.228 E36.70992
G1 X119.286 Y100.496 E37.68718
G1 X119.390 Y101.560 E37.81165
G1 X119.270 Y103.090 E37.99023
G1 X118.878 Y104.460 E38.15604
G1 X118.418 Y105.420 E38.27999
G1 X114.220 Y112.691 E39.25725
G1 X113.617 Y113.571 E39.38142
G1 X112.630 Y114.593 E39.54678
G1 X111.360 Y115.464 E39.72598
G1 X110.390 Y115.905 E39.85006
G1 X102.500 Y118.777 E40.82733
G1 X101.472 Y119.063 E40.95153
G1 X100.059 Y119.212 E41.11690
G1 X98.528 Y119.063 E41.29593
G1 X97.500 Y118.777 E41.42013
G1 X94.512 Y117.689 E41.79030
G1 X89.610 Y115.905 E42.39739
G1 X88.640 Y115.464 E42.52148
G1 X87.370 Y114.593 E42.70067
G1 X86.383 Y113.571 E42.86604
G1 X85.780 Y112.691 E42.99020
G1 X81.582 Y105.420 E43.96746
G1 X81.167 Y104.569 E44.07772
G1 X80.730 Y103.090 E44.25718
G1 X80.610 Y101.561 E44.43574
G1 X80.714 Y100.496 E44.56023
G1 X82.172 Y92.228 E45.53749
G1 X82.401 Y91.308 E45.64785
G1 X83.015 Y89.898 E45.82680
G1 X83.076 Y89.792 E45.84101
G1 X83.909 Y88.646 E46.00596
G1 X84.629 Y87.939 E46.12335
G1 E44.12335 F2400.00000
G92 E0
G1 X106.845 Y107.791 F4500.000
G1 E2.00000 F2400.00000
G1 X100.000 Y110.283 E2.84782 F1200.000
G1 X93.155 Y107.791 E3.69565
G1 X89.513 Y101.483 E4.54347
G1 X90.778 Y94.310 E5.39129
G1 X96.357 Y89.628 E6.23902
G1 X103.650 Y89.634 E7.08786
G1 X109.222 Y94.310 E7.93445 F1200.000
G1 X110.487 Y101.483 E8.78227
G1 X106.875 Y107.739 E9.62311
G1 X107.118 Y108.543 F4500.000
G1 X100.000 Y111.134 E10.50482 F1200.000
G1 X92.608 Y108.443 E11.42042
G1 X88.675 Y101.631 E12.33602
G1 X90.041 Y93.884 E13.25161
G1 X96.067 Y88.828 E14.16716
G1 X103.942 Y88.835 E15.08377
G1 X109.959 Y93.884 E15.99808 F1200.000
G1 X111.325 Y101.631 E16.91368
G1 X107.392 Y108.443 E17.82928
G1 X107.175 Y108.522 E17.85618
G1 X107.392 Y109.295 F4500.000
G1 X100.075 Y111.958 E18.76247 F1200.000
G1 X99.959 Y111.970 E18.77612
G1 X92.136 Y109.123 E19.74504
G1 X92.039 Y109.057 E19.75869
G1 X87.859 Y101.817 E20.73179
G1 X87.850 Y101.700 E20.74543
G1 X89.291 Y93.529 E21.71122
G1 X89.360 Y93.411 E21.72700
G1 X95.721 Y88.074 E22.69358
G1 X95.777 Y88.043 E22.70098
G1 X95.849 Y88.028 E22.70949
G1 X104.233 Y88.035 E23.68538
G1 X110.662 Y93.430 E24.66228 F1200.000
G1 X110.710 Y93.537 E24.67593
G1 X112.156 Y101.735 E25.64485
G1 X112.123 Y101.848 E25.65851
G1 X107.979 Y109.026 E26.62326
G1 X107.898 Y109.111 E26.63691
G1 X107.448 Y109.274 E26.69256
G1 X107.086 Y109.038 F4500.000
G1 X97.408 Y108.830 F4500.000
G1 X90.179 Y101.601 E27.90997 F1200.000
G1 X90.100 Y100.364 E28.05758
G1 X99.228 Y109.492 E29.59484
G1 X100.579 Y109.686 E29.75741
G1 X90.273 Y99.380 E31.49302
G1 X90.447 Y98.397 E31.61200
G1 X101.427 Y109.377 E33.46130
G1 X102.276 Y109.069 E33.56883
G1 X90.620 Y97.413 E35.53182
G1 X90.794 Y96.429 E35.65079
G1 X103.125 Y108.760 E37.72746
G1 X103.973 Y108.451 E37.83500
G1 X90.967 Y95.445 E40.02535
G1 X91.150 Y94.470 E40.14342
G1 X104.822 Y108.142 E42.44588
G1 X105.670 Y107.833 E42.55342
G1 X91.764 Y93.927 E44.89535
G1 X92.394 Y93.399 E44.99318
G1 X106.519 Y107.524 E47.37203
G1 X106.992 Y106.840 E47.47109
G1 X93.023 Y92.871 E49.82366
G1 X93.652 Y92.343 E49.92149
G1 X107.416 Y106.106 E52.23942
G1 X107.839 Y105.373 E52.34031
G1 X94.281 Y91.815 E54.62360
G1 X94.911 Y91.287 E54.72143
G1 X108.263 Y104.639 E56.97008
G1 X108.686 Y103.905 E57.07097
G1 X95.540 Y90.759 E59.28498
G1 X96.169 Y90.231 E59.38281
G1 X109.110 Y103.172 E61.56218
G1 X109.534 Y102.438 E61.66307
G1 X97.135 Y90.039 E63.75115
G1 X98.293 Y90.040 E63.88909
G1 X109.957 Y101.704 E65.85342
G1 X109.854 Y100.444 E66.00400
G1 X99.452 Y90.041 E67.75592
G1 X100.610 Y90.042 E67.89387
G1 X109.607 Y99.039 E69.40898
G1 X109.359 Y97.634 E69.57890
G1 X101.769 Y90.043 E70.85720
G1 X102.927 Y90.044 E70.99515
G1 X109.111 Y96.228 E72.03664
G1 X108.863 Y94.823 F4500.000
G1 X108.337 Y94.297 E72.12527 F1200.000
G1 X95.588 Y108.168 F4500.000
G1 X91.760 Y104.340 E72.76997 F1200.000
G1 X93.341 Y107.078 F4500.000
G1 X93.769 Y107.505 E72.84195 F1200.000
M106 S137.7
G1 Z0.550 F4500.000
G1 X107.321 Y109.100 F4500.000
G1 X100.000 Y111.765 E73.07328 F1800.000
G1 X92.202 Y108.927 E73.31966
G1 X88.053 Y101.741 E73.56604
G1 X89.494 Y93.569 E73.81242
G1 X95.851 Y88.235 E74.05880
G1 X104.149 Y88.235 E74.30518
G1 X110.506 Y93.569 E74.55155
G1 X111.947 Y101.741 E74.79793 F1800.000
G1 X107.798 Y108.927 E75.04431
G1 X107.378 Y109.080 E75.05758
G1 X107.443 Y109.436 F4500.000
G1 X100.104 Y112.107 E75.28949 F1800.000
G1 X99.971 Y112.123 E75.29345
G1 X92.062 Y109.256 E75.54325
G1 X91.994 Y109.220 E75.54553
G1 X91.903 Y109.122 E75.54949
G1 X87.734 Y101.902 E75.79703
G1 X87.696 Y101.775 E75.80099
G1 X89.146 Y93.487 E76.05078
G1 X89.170 Y93.414 E76.05307
G1 X89.250 Y93.308 E76.05703
G1 X95.636 Y87.949 E76.30456
G1 X95.724 Y87.900 E76.30754
G1 X95.844 Y87.878 E76.31115
G1 X104.211 Y87.884 E76.55961
G1 X104.364 Y87.949 E76.56452 F1800.000
G1 X110.802 Y93.365 E76.81432
G1 X110.854 Y93.487 E76.81828
G1 X112.302 Y101.698 E77.06582
G1 X112.304 Y101.775 E77.06810
G1 X112.266 Y101.902 E77.07206
G1 X108.097 Y109.122 E77.31960
G1 X108.006 Y109.220 E77.32356
G1 X107.938 Y109.256 E77.32584
G1 X107.500 Y109.415 E77.33969
G1 X107.565 Y109.771 F4500.000
G1 X100.202 Y112.451 E77.57233 F900.000
G1 X100.066 Y112.480 E77.57647
G1 X99.934 Y112.480 E77.58040
G1 X99.798 Y112.451 E77.58454
G1 X91.916 Y109.583 E77.83356
G1 X91.793 Y109.517 E77.83770
G1 X91.692 Y109.432 E77.84162
G1 X91.606 Y109.322 E77.84576
G1 X87.413 Y102.059 E78.09478
G1 X87.360 Y101.930 E78.09892
G1 X87.337 Y101.800 E78.10285
G1 X87.342 Y101.660 E78.10699
G1 X88.799 Y93.401 E78.35601
G1 X88.842 Y93.268 E78.36014
G1 X88.908 Y93.154 E78.36407
G1 X89.001 Y93.050 E78.36821
G1 X95.426 Y87.659 E78.61723
G1 X95.630 Y87.554 E78.62404
G1 X95.811 Y87.521 E78.62950
G1 X104.194 Y87.521 E78.87840
G1 X104.291 Y87.534 E78.88131
G1 X104.460 Y87.588 E78.88657 F900.000
G1 X104.574 Y87.659 E78.89058
G1 X110.999 Y93.050 E79.13960
G1 X111.092 Y93.154 E79.14373
G1 X111.158 Y93.268 E79.14766
G1 X111.201 Y93.401 E79.15180
G1 X112.658 Y101.660 E79.40082
G1 X112.663 Y101.800 E79.40496
G1 X112.640 Y101.930 E79.40889
G1 X112.587 Y102.059 E79.41302
G1 X108.394 Y109.322 E79.66204
G1 X108.308 Y109.432 E79.66618
G1 X108.207 Y109.517 E79.67011
G1 X108.084 Y109.583 E79.67425
G1 X107.622 Y109.751 E79.68884
G1 X107.259 Y109.514 F4500.000
G1 X107.378 Y108.792 F4500.000
G1 X107.733 Y108.438 E79.71552 F1200.000
G1 X105.956 Y109.310 F4500.000
G1 X108.969 Y106.297 E79.94219 F1200.000
G1 X110.205 Y104.156 F4500.000
G1 X104.533 Y109.828 E80.36885 F1200.000
G1 X103.111 Y110.346 F4500.000
G1 X111.440 Y102.016 E80.99550 F1200.000
G1 X111.608 Y100.944 E81.05322
G1 X101.688 Y110.863 E81.79948
G1 X100.266 Y111.381 F4500.000
G1 X111.472 Y100.174 E82.64255 F1200.000
G1 X111.337 Y99.405 E82.68409
G1 X99.389 Y111.353 E83.58288
G1 X98.726 Y111.111 E83.62043
G1 X111.201 Y98.636 E84.55891
G1 X111.066 Y97.867 E84.60046
G1 X98.063 Y110.870 E85.57864
G1 X97.400 Y110.628 E85.61619
G1 X110.930 Y97.098 E86.63407
G1 X110.794 Y96.329 E86.67561
G1 X96.736 Y110.387 E87.73319
G1 X96.073 Y110.145 E87.77074
G1 X110.659 Y95.560 E88.86802
G1 X110.523 Y94.791 E88.90956
G1 X95.410 Y109.904 E90.04654
G1 X94.746 Y109.663 E90.08409
G1 X110.387 Y94.021 E91.26076
G1 X110.081 Y93.423 E91.29651
G1 X94.083 Y109.421 E92.50003
G1 X93.420 Y109.180 E92.53758
G1 X109.589 Y93.010 E93.75398
G1 X109.097 Y92.598 E93.78814
G1 X92.756 Y108.938 E95.01744
G1 X92.201 Y108.589 E95.05234
G1 X108.605 Y92.185 E96.28643
G1 X108.113 Y91.772 E96.32059
G1 X91.870 Y108.016 E97.54258
G1 X91.538 Y107.442 E97.57781
G1 X107.621 Y91.359 E98.78770
G1 X107.129 Y90.947 E98.82186
G1 X91.207 Y106.868 E100.01966
G1 X90.876 Y106.295 E100.05489
G1 X106.637 Y90.534 E101.24059
G1 X106.145 Y90.121 E101.27475
G1 X90.545 Y105.721 E102.44835
G1 X90.214 Y105.148 E102.48358
G1 X105.653 Y89.708 E103.64509
G1 X105.161 Y89.295 E103.67925
G1 X89.883 Y104.574 E104.82866
G1 X89.552 Y104.001 E104.86389
G1 X104.670 Y88.883 E106.00121
G1 X104.178 Y88.470 E106.03537
G1 X89.220 Y103.427 E107.16059
G1 X88.889 Y102.853 E107.19582
G1 X103.292 Y88.451 E108.27931
G1 X102.387 Y88.451 E108.32743
G1 X88.558 Y102.280 E109.36777
G1 X88.321 Y101.612 E109.40547
G1 X101.482 Y88.451 E110.39556
G1 X100.577 Y88.451 E110.44369
G1 X88.515 Y100.514 E111.35115
G1 X88.709 Y99.415 E111.41048
G1 X99.673 Y88.451 E112.23531
G1 X98.768 Y88.451 E112.28344
G1 X88.902 Y98.317 E113.02563
G1 X89.096 Y97.218 E113.08496
G1 X97.863 Y88.451 E113.74453
G1 X96.959 Y88.451 E113.79265
G1 X89.290 Y96.120 E114.36959
G1 X89.483 Y95.022 E114.42892
G1 X95.753 Y88.752 E114.90058
G1 X90.130 Y93.470 F4500.000
G1 X89.677 Y93.923 E114.93468 F1200.000
G1 Z0.750 F4500.000
G1 X107.355 Y109.194 F4500.000
G1 X100.000 Y111.866 E115.16703 F1800.000
G1 X92.170 Y109.021 E115.41437
G1 X92.115 Y108.975 E115.41651
G1 X87.954 Y101.758 E115.66385
G1 X89.392 Y93.577 E115.91049
G1 X89.421 Y93.500 E115.91293
G1 X95.785 Y88.160 E116.15961
G1 X95.853 Y88.135 E116.16173
G1 X104.196 Y88.144 E116.40945
G1 X110.593 Y93.518 E116.65752 F1800.000
G1 X112.044 Y101.721 E116.90487
G1 X112.032 Y101.792 E116.90700
G1 X107.885 Y108.975 E117.15327
G1 X107.830 Y109.021 E117.15540
G1 X107.412 Y109.173 E117.16861
G1 X107.477 Y109.529 F4500.000
G1 X100.135 Y112.202 E117.40062 F1800.000
G1 X99.961 Y112.222 E117.40581
G1 X99.865 Y112.202 E117.40871
G1 X92.025 Y109.348 E117.65646
G1 X91.878 Y109.252 E117.66165
G1 X91.818 Y109.175 E117.66455
G1 X87.646 Y101.949 E117.91230
G1 X87.596 Y101.782 E117.91749
G1 X87.600 Y101.684 E117.92039
G1 X89.046 Y93.481 E118.16771
G1 X89.103 Y93.331 E118.17247
G1 X89.183 Y93.233 E118.17621
G1 X95.575 Y87.870 E118.42396
G1 X95.731 Y87.792 E118.42915
G1 X95.828 Y87.778 E118.43204
G1 X104.235 Y87.787 E118.68167
G1 X104.342 Y87.818 E118.68498 F1800.000
G1 X104.425 Y87.870 E118.68788
G1 X110.817 Y93.233 E118.93563
G1 X110.882 Y93.306 E118.93853
G1 X110.952 Y93.467 E118.94372
G1 X112.400 Y101.684 E119.19146
G1 X112.404 Y101.782 E119.19436
G1 X112.354 Y101.949 E119.19956
G1 X108.182 Y109.175 E119.44730
G1 X108.122 Y109.252 E119.45020
G1 X107.975 Y109.348 E119.45539
G1 X107.534 Y109.509 E119.46935
G1 X107.600 Y109.865 F4500.000
G1 X100.233 Y112.546 E119.70210 F900.000
G1 X100.077 Y112.579 E119.70685
G1 X99.923 Y112.579 E119.71140
G1 X99.767 Y112.546 E119.71616
G1 X91.879 Y109.675 E119.96539
G1 X91.738 Y109.600 E119.97014
G1 X91.620 Y109.502 E119.97469
G1 X91.522 Y109.375 E119.97945
G1 X87.325 Y102.106 E120.22867
G1 X87.265 Y101.957 E120.23343
G1 X87.238 Y101.807 E120.23798
G1 X87.244 Y101.646 E120.24274
G1 X88.700 Y93.385 E120.49181
G1 X88.780 Y93.177 E120.49843
G1 X88.934 Y92.976 E120.50595
G1 X95.365 Y87.580 E120.75518
G1 X95.500 Y87.496 E120.75994
G1 X95.644 Y87.443 E120.76449
G1 X95.803 Y87.421 E120.76924
G1 X104.260 Y87.430 E121.02035
G1 X104.500 Y87.496 E121.02772 F900.000
G1 X104.635 Y87.580 E121.03248
G1 X111.066 Y92.976 E121.28170
G1 X111.173 Y93.095 E121.28646
G1 X111.249 Y93.228 E121.29101
G1 X111.299 Y93.380 E121.29576
G1 X112.756 Y101.646 E121.54499
G1 X112.762 Y101.807 E121.54975
G1 X112.735 Y101.957 E121.55430
G1 X112.675 Y102.106 E121.55905
G1 X108.478 Y109.375 E121.80828
G1 X108.380 Y109.502 E121.81304
G1 X108.262 Y109.600 E121.81758
G1 X108.121 Y109.675 E121.82234
G1 X107.656 Y109.845 E121.83704
G1 X107.293 Y109.608 F4500.000
G1 X98.297 Y110.959 F4500.000
G1 X88.293 Y100.955 E122.59622 F1200.000
G1 X88.430 Y100.179 E122.63852
G1 X99.732 Y111.481 E123.49626
G1 X100.616 Y111.452 E123.54370
G1 X88.566 Y99.402 E124.45815
G1 X88.703 Y98.626 E124.50044
G1 X101.285 Y111.209 E125.45535
G1 X101.955 Y110.965 E125.49357
G1 X88.839 Y97.850 E126.48893
G1 X88.975 Y97.073 E126.53123
G1 X102.624 Y110.722 E127.56704
G1 X103.294 Y110.479 E127.60527
G1 X89.112 Y96.297 E128.68154
G1 X89.248 Y95.521 E128.72384
G1 X103.963 Y110.236 E129.84057
G1 X104.633 Y109.993 E129.87880
G1 X89.385 Y94.745 E131.03599
G1 X89.521 Y93.968 E131.07828
G1 X105.302 Y109.749 E132.27593
