; generated by Slic3r 1.2.9 on 2016-04-14 at 14:17:19

; external perimeters extrusion width = 0.40mm
; perimeters extrusion width = 0.68mm
; infill extrusion width = 1.28mm
; solid infill extrusion width = 0.25mm
; top infill extrusion width = 0.25mm

M107
M190 S55 ; set bed temperature
M104 S195 ; set temperature
G28 ; home all axes
G1 Z5 F5000 ; lift nozzle

;Pre-Extrude
;G0 F9000 X0 Y0 Z0.300
;G1 F1200 X2.000 Y80.000 E2.000 ;Extrude strip 
;G92 E0                  ;zero the extruded length again

M109 S195 ; wait for temperature to be reached
G21 ; set units to millimeters
G90 ; use absolute coordinates
M82 ; use absolute distances for extrusion
G92 E0
G1 Z0.200 F4500.000
G1 E-2.00000 F2400.00000
G92 E0
G1 X88.770 Y89.699 F4500.000
G1 E2.00000 F2400.00000
G1 X90.528 Y88.187 E2.04957 F1200.000
G1 X92.693 Y87.356 E2.09914
G1 X94.000 Y87.229 E2.12720
G1 X106.000 Y87.229 E2.38372
G1 X108.285 Y87.626 E2.43328
G1 X110.301 Y88.770 E2.48285 F1200.000
G1 X111.813 Y90.528 E2.53242
G1 X112.644 Y92.693 E2.58199
G1 X112.771 Y94.000 E2.61005
G1 X112.771 Y106.000 E2.86657
G1 X112.374 Y108.285 E2.91614
G1 X111.230 Y110.301 E2.96570
G1 X109.472 Y111.813 E3.01527
G1 X107.307 Y112.644 E3.06484
G1 X106.000 Y112.771 E3.09290
G1 X94.000 Y112.771 E3.34942
G1 X91.715 Y112.374 E3.39899
G1 X89.699 Y111.230 E3.44856
G1 X88.187 Y109.472 E3.49812
G1 X87.356 Y107.307 E3.54769
G1 X87.229 Y106.000 E3.57576
G1 X87.229 Y94.000 E3.83227
G1 X87.626 Y91.715 E3.88184
G1 X88.741 Y89.751 E3.93013
G1 X89.003 Y89.834 F4500.000
G1 X89.025 Y89.795 E3.93109 F1200.000
G1 X90.774 Y88.341 E3.97970
G1 X94.000 Y87.486 E4.05104
G1 X106.000 Y87.486 E4.30756
G1 X108.239 Y87.883 E4.35617
G1 X110.205 Y89.025 E4.40478 F1200.000
G1 X111.659 Y90.774 E4.45339
G1 X112.514 Y94.000 E4.52473
G1 X112.514 Y106.000 E4.78125
G1 X112.117 Y108.239 E4.82986
G1 X110.975 Y110.205 E4.87847
G1 X109.226 Y111.659 E4.92708
G1 X106.000 Y112.514 E4.99843
G1 X94.000 Y112.514 E5.25494
G1 X91.761 Y112.117 E5.30355
G1 X89.795 Y110.975 E5.35216
G1 X88.341 Y109.226 E5.40077
G1 X87.486 Y106.000 E5.47212
G1 X87.486 Y94.000 E5.72863
G1 X87.883 Y91.761 E5.77724
G1 X88.972 Y89.885 E5.82361
G1 X89.233 Y89.971 F4500.000
G1 X89.280 Y89.893 E5.82555 F1200.000
G1 X91.019 Y88.499 E5.87319
G1 X94.000 Y87.743 E5.93894
G1 X106.000 Y87.743 E6.19545
G1 X108.193 Y88.140 E6.24309
G1 X110.107 Y89.280 E6.29072 F1200.000
G1 X111.501 Y91.019 E6.33836
G1 X112.257 Y94.000 E6.40410
G1 X112.257 Y106.000 E6.66062
G1 X111.860 Y108.193 E6.70825
G1 X110.720 Y110.107 E6.75589
G1 X108.981 Y111.501 E6.80352
G1 X106.000 Y112.257 E6.86927
G1 X94.000 Y112.257 E7.12579
G1 X91.807 Y111.860 E7.17342
G1 X89.893 Y110.720 E7.22106
G1 X88.499 Y108.981 E7.26869
G1 X87.743 Y106.000 E7.33444
G1 X87.743 Y94.000 E7.59095
G1 X88.140 Y91.807 E7.63859
G1 X89.202 Y90.023 E7.68299
G1 E5.68299 F2400.00000
G92 E0
G1 X105.336 Y105.336 F4500.000
G1 E2.00000 F2400.00000
G1 X94.664 Y105.336 E2.22812 F1200.000
G1 X94.664 Y94.664 E2.45624
G1 X105.336 Y94.664 E2.68436
G1 X105.336 Y105.276 E2.91120
G1 X105.593 Y105.593 F4500.000
G1 X94.407 Y105.593 E3.15031 F1200.000
G1 X94.407 Y94.407 E3.38942
G1 X105.593 Y94.407 E3.62853
G1 X105.593 Y105.533 E3.86636
G1 X105.850 Y105.850 F4500.000
G1 X94.150 Y105.850 E4.11646 F1200.000
G1 X94.150 Y94.150 E4.36657
G1 X105.850 Y94.150 E4.61667
G1 X105.850 Y105.790 E4.86549
G1 X105.504 Y105.650 F4500.000
G1 X105.218 Y94.931 F4500.000
G1 X105.069 Y94.782 E4.87004 F1200.000
G1 X104.701 Y94.782 E4.87798
G1 X105.218 Y95.299 E4.89375
G1 X105.218 Y95.666 E4.90169
G1 X104.334 Y94.782 E4.92868
G1 X103.966 Y94.782 E4.93662
G1 X105.218 Y96.034 E4.97484
G1 X105.218 Y96.401 E4.98277
G1 X103.599 Y94.782 E5.03221
G1 X103.232 Y94.782 E5.04015
G1 X105.218 Y96.768 E5.10081
G1 X105.218 Y97.136 E5.10874
G1 X102.864 Y94.782 E5.18062
G1 X102.497 Y94.782 E5.18856
G1 X105.218 Y97.503 E5.27166
G1 X105.218 Y97.870 E5.27960
G1 X102.130 Y94.782 E5.37392
G1 X101.762 Y94.782 E5.38186
G1 X105.218 Y98.238 E5.48741
G1 X105.218 Y98.605 E5.49534
G1 X101.395 Y94.782 E5.61211
G1 X101.028 Y94.782 E5.62004
G1 X105.218 Y98.972 E5.74803
G1 X105.218 Y99.340 E5.75597
G1 X100.660 Y94.782 E5.89518
G1 X100.293 Y94.782 E5.90312
G1 X105.218 Y99.707 E6.05355
G1 X105.218 Y100.075 E6.06148
G1 X99.925 Y94.782 E6.22314
G1 X99.558 Y94.782 E6.23107
G1 X105.218 Y100.442 E6.40395
G1 X105.218 Y100.809 E6.41188
G1 X99.191 Y94.782 E6.59598
G1 X98.823 Y94.782 E6.60392
G1 X105.218 Y101.177 E6.79924
G1 X105.218 Y101.544 E6.80717
G1 X98.456 Y94.782 E7.01371
G1 X98.089 Y94.782 E7.02165
G1 X105.218 Y101.911 E7.23941
G1 X105.218 Y102.279 E7.24734
G1 X97.721 Y94.782 E7.47633
G1 X97.354 Y94.782 E7.48426
G1 X105.218 Y102.646 E7.72447
G1 X105.218 Y103.013 E7.73240
G1 X96.987 Y94.782 E7.98383
G1 X96.619 Y94.782 E7.99176
G1 X105.218 Y103.381 E8.25441
G1 X105.218 Y103.748 E8.26235
G1 X96.252 Y94.782 E8.53622
G1 X95.884 Y94.782 E8.54415
G1 X105.218 Y104.116 E8.82924
G1 X105.218 Y104.483 E8.83718
G1 X95.517 Y94.782 E9.13349
G1 X95.150 Y94.782 E9.14143
G1 X105.218 Y104.850 E9.44896
G1 X105.198 Y105.198 E9.45648
G1 X94.802 Y94.802 E9.77401
G1 X94.782 Y95.150 E9.78152
G1 X104.850 Y105.218 E10.08906
G1 X104.483 Y105.218 E10.09699
G1 X94.782 Y95.517 E10.39330
G1 X94.782 Y95.885 E10.40124
G1 X104.115 Y105.218 E10.68633
G1 X103.748 Y105.218 E10.69426
G1 X94.782 Y96.252 E10.96813
G1 X94.782 Y96.619 E10.97607
G1 X103.381 Y105.218 E11.23871
G1 X103.013 Y105.218 E11.24665
G1 X94.782 Y96.987 E11.49807
G1 X94.782 Y97.354 E11.50601
G1 X102.646 Y105.218 E11.74621
G1 X102.279 Y105.218 E11.75415
G1 X94.782 Y97.721 E11.98313
G1 X94.782 Y98.089 E11.99106
G1 X101.911 Y105.218 E12.20882
G1 X101.544 Y105.218 E12.21676
G1 X94.782 Y98.456 E12.42330
G1 X94.782 Y98.823 E12.43123
G1 X101.177 Y105.218 E12.62655
G1 X100.809 Y105.218 E12.63449
G1 X94.782 Y99.191 E12.81858
G1 X94.782 Y99.558 E12.82652
G1 X100.442 Y105.218 E12.99939
G1 X100.074 Y105.218 E13.00733
G1 X94.782 Y99.926 E13.16898
G1 X94.782 Y100.293 E13.17691
G1 X99.707 Y105.218 E13.32735
G1 X99.340 Y105.218 E13.33528
G1 X94.782 Y100.660 E13.47449
G1 X94.782 Y101.028 E13.48243
G1 X98.972 Y105.218 E13.61041
G1 X98.605 Y105.218 E13.61835
G1 X94.782 Y101.395 E13.73512
G1 X94.782 Y101.762 E13.74305
G1 X98.238 Y105.218 E13.84860
G1 X97.870 Y105.218 E13.85653
G1 X94.782 Y102.130 E13.95086
G1 X94.782 Y102.497 E13.95879
G1 X97.503 Y105.218 E14.04189
G1 X97.136 Y105.218 E14.04983
G1 X94.782 Y102.864 E14.12171
G1 X94.782 Y103.232 E14.12964
G1 X96.768 Y105.218 E14.19030
G1 X96.401 Y105.218 E14.19824
G1 X94.782 Y103.599 E14.24768
G1 X94.782 Y103.966 E14.25561
G1 X96.034 Y105.218 E14.29383
G1 X95.666 Y105.218 E14.30176
G1 X94.782 Y104.334 E14.32876
G1 X94.782 Y104.701 E14.33669
G1 X95.299 Y105.218 E14.35247
G1 X94.931 Y105.218 E14.36040
G1 X94.782 Y105.069 E14.36495
M106 S196.35
G1 Z0.300 F4500.000
G1 X104.623 Y104.623 F4500.000
G1 X95.377 Y104.623 E14.61809 F900.000
G1 X95.377 Y95.377 E14.87123
G1 X104.623 Y95.377 E15.12438
G1 X104.623 Y104.563 E15.37587
G1 X105.281 Y105.281 F4500.000
G1 X94.719 Y105.281 E15.66507 F1800.000
G1 X94.719 Y94.719 E15.95428
G1 X105.281 Y94.719 E16.24348
G1 X105.281 Y105.221 E16.53103
G1 X105.800 Y105.800 F4500.000
G1 X94.200 Y105.800 E16.71359 F900.000
G1 X94.200 Y94.200 E16.89615
G1 X105.800 Y94.200 E17.07871
G1 X105.800 Y105.740 E17.26033
G1 X105.454 Y105.600 F4500.000
G1 X104.222 Y104.359 F4500.000
G1 X104.359 Y104.222 E17.26217 F1200.000
G1 X104.359 Y103.898 E17.26525
G1 X103.898 Y104.359 E17.27146
G1 X103.574 Y104.359 E17.27454
G1 X104.359 Y103.574 E17.28510
G1 X104.359 Y103.250 E17.28818
G1 X103.250 Y104.359 E17.30310
G1 X102.927 Y104.359 E17.30618
G1 X104.359 Y102.927 E17.32546
G1 X104.359 Y102.603 E17.32855
G1 X102.603 Y104.359 E17.35218
G1 X102.279 Y104.359 E17.35527
G1 X104.359 Y102.279 E17.38326
G1 X104.359 Y101.955 E17.38635
G1 X101.955 Y104.359 E17.41870
G1 X101.631 Y104.359 E17.42178
G1 X104.359 Y101.631 E17.45850
G1 X104.359 Y101.308 E17.46158
G1 X101.308 Y104.359 E17.50266
G1 X100.984 Y104.359 E17.50574
G1 X104.359 Y100.984 E17.55117
G1 X104.359 Y100.660 E17.55425
G1 X100.660 Y104.359 E17.60404
G1 X100.336 Y104.359 E17.60713
G1 X104.359 Y100.336 E17.66128
G1 X104.359 Y100.012 E17.66436
G1 X100.012 Y104.359 E17.72287
G1 X99.689 Y104.359 E17.72595
G1 X104.359 Y99.689 E17.78882
G1 X104.359 Y99.365 E17.79190
G1 X99.365 Y104.359 E17.85913
G1 X99.041 Y104.359 E17.86221
G1 X104.359 Y99.041 E17.93380
G1 X104.359 Y98.717 E17.93688
G1 X98.717 Y104.359 E18.01283
G1 X98.393 Y104.359 E18.01591
G1 X104.359 Y98.393 E18.09621
G1 X104.359 Y98.070 E18.09929
G1 X98.070 Y104.359 E18.18396
G1 X97.746 Y104.359 E18.18704
G1 X104.359 Y97.746 E18.27606
G1 X104.359 Y97.422 E18.27914
G1 X97.422 Y104.359 E18.37252
G1 X97.098 Y104.359 E18.37561
G1 X104.359 Y97.098 E18.47335
G1 X104.359 Y96.774 E18.47643
G1 X96.774 Y104.359 E18.57853
G1 X96.451 Y104.359 E18.58161
G1 X104.359 Y96.451 E18.68807
G1 X104.359 Y96.127 E18.69115
G1 X96.127 Y104.359 E18.80197
G1 X95.803 Y104.359 E18.80505
G1 X104.359 Y95.803 E18.92022
G1 X104.197 Y95.641 E18.92240
G1 X95.641 Y104.197 E19.03758
G1 X95.641 Y103.873 E19.04066
G1 X103.873 Y95.641 E19.15147
G1 X103.549 Y95.641 E19.15456
G1 X95.641 Y103.549 E19.26101
G1 X95.641 Y103.225 E19.26410
G1 X103.225 Y95.641 E19.36619
G1 X102.902 Y95.641 E19.36928
G1 X95.641 Y102.902 E19.46701
G1 X95.641 Y102.578 E19.47010
G1 X102.578 Y95.641 E19.56348
G1 X102.254 Y95.641 E19.56656
G1 X95.641 Y102.254 E19.65558
G1 X95.641 Y101.930 E19.65866
G1 X101.930 Y95.641 E19.74332
G1 X101.606 Y95.641 E19.74641
G1 X95.641 Y101.606 E19.82671
G1 X95.641 Y101.283 E19.82979
G1 X101.283 Y95.641 E19.90574
G1 X100.959 Y95.641 E19.90882
G1 X95.641 Y100.959 E19.98040
G1 X95.641 Y100.635 E19.98349
G1 X100.635 Y95.641 E20.05071
G1 X100.311 Y95.641 E20.05379
G1 X95.641 Y100.311 E20.11666
G1 X95.641 Y99.987 E20.11974
G1 X99.987 Y95.641 E20.17825
G1 X99.664 Y95.641 E20.18134
G1 X95.641 Y99.664 E20.23549
G1 X95.641 Y99.340 E20.23857
G1 X99.340 Y95.641 E20.28836
G1 X99.016 Y95.641 E20.29144
G1 X95.641 Y99.016 E20.33687
G1 X95.641 Y98.692 E20.33995
G1 X98.692 Y95.641 E20.38103
G1 X98.368 Y95.641 E20.38411
G1 X95.641 Y98.369 E20.42082
G1 X95.641 Y98.045 E20.42391
G1 X98.045 Y95.641 E20.45626
G1 X97.721 Y95.641 E20.45934
G1 X95.641 Y97.721 E20.48734
G1 X95.641 Y97.397 E20.49042
G1 X97.397 Y95.641 E20.51406
G1 X97.073 Y95.641 E20.51714
G1 X95.641 Y97.073 E20.53642
G1 X95.641 Y96.750 E20.53950
G1 X96.750 Y95.641 E20.55442
G1 X96.426 Y95.641 E20.55750
G1 X95.641 Y96.426 E20.56807
G1 X95.641 Y96.102 E20.57115
G1 X96.102 Y95.641 E20.57735
G1 X95.778 Y95.641 E20.58043
G1 X95.641 Y95.778 E20.58227
G1 Z0.400 F4500.000
G1 X104.623 Y104.623 F4500.000
G1 X95.377 Y104.623 E20.83542 F900.000
G1 X95.377 Y95.377 E21.08856
G1 X104.623 Y95.377 E21.34170
G1 X104.623 Y104.563 E21.59320
G1 X105.281 Y105.281 F4500.000
G1 X94.719 Y105.281 E21.88240 F1800.000
G1 X94.719 Y94.719 E22.17160
G1 X105.281 Y94.719 E22.46080
G1 X105.281 Y105.221 E22.74836
G1 X105.800 Y105.800 F4500.000
G1 X94.200 Y105.800 E22.93092 F900.000
G1 X94.200 Y94.200 E23.11348
G1 X105.800 Y94.200 E23.29603
G1 X105.800 Y105.740 E23.47765
G1 X105.454 Y105.600 F4500.000
G1 X104.359 Y95.778 F4500.000
G1 X104.222 Y95.641 E23.47949 F1200.000
G1 X103.898 Y95.641 E23.48257
G1 X104.359 Y96.102 E23.48878
G1 X104.359 Y96.426 E23.49186
G1 X103.574 Y95.641 E23.50242
G1 X103.250 Y95.641 E23.50550
G1 X104.359 Y96.750 E23.52042
G1 X104.359 Y97.073 E23.52351
G1 X102.927 Y95.641 E23.54279
G1 X102.603 Y95.641 E23.54587
G1 X104.359 Y97.397 E23.56951
G1 X104.359 Y97.721 E23.57259
G1 X102.279 Y95.641 E23.60059
G1 X101.955 Y95.641 E23.60367
G1 X104.359 Y98.045 E23.63602
G1 X104.359 Y98.369 E23.63911
G1 X101.631 Y95.641 E23.67582
G1 X101.308 Y95.641 E23.67890
G1 X104.359 Y98.692 E23.71998
G1 X104.359 Y99.016 E23.72306
G1 X100.984 Y95.641 E23.76849
G1 X100.660 Y95.641 E23.77157
G1 X104.359 Y99.340 E23.82137
G1 X104.359 Y99.664 E23.82445
G1 X100.336 Y95.641 E23.87860
G1 X100.012 Y95.641 E23.88168
G1 X104.359 Y99.988 E23.94019
G1 X104.359 Y100.311 E23.94327
G1 X99.689 Y95.641 E24.00614
G1 X99.365 Y95.641 E24.00922
G1 X104.359 Y100.635 E24.07645
G1 X104.359 Y100.959 E24.07953
G1 X99.041 Y95.641 E24.15112
G1 X98.717 Y95.641 E24.15420
G1 X104.359 Y101.283 E24.23015
G1 X104.359 Y101.607 E24.23323
G1 X98.393 Y95.641 E24.31353
G1 X98.070 Y95.641 E24.31662
G1 X104.359 Y101.930 E24.40128
G1 X104.359 Y102.254 E24.40436
G1 X97.746 Y95.641 E24.49338
G1 X97.422 Y95.641 E24.49646
G1 X104.359 Y102.578 E24.58985
G1 X104.359 Y102.902 E24.59293
G1 X97.098 Y95.641 E24.69067
G1 X96.774 Y95.641 E24.69375
G1 X104.359 Y103.226 E24.79585
G1 X104.359 Y103.549 E24.79893
G1 X96.451 Y95.641 E24.90539
G1 X96.127 Y95.641 E24.90847
G1 X104.359 Y103.873 E25.01929
G1 X104.359 Y104.197 E25.02237
G1 X95.803 Y95.641 E25.13754
G1 X95.641 Y95.803 E25.13972
G1 X104.197 Y104.359 E25.25490
G1 X103.873 Y104.359 E25.25798
G1 X95.641 Y96.127 E25.36880
G1 X95.641 Y96.451 E25.37188
G1 X103.549 Y104.359 E25.47834
G1 X103.225 Y104.359 E25.48142
G1 X95.641 Y96.775 E25.58352
G1 X95.641 Y97.098 E25.58660
G1 X102.902 Y104.359 E25.68434
G1 X102.578 Y104.359 E25.68742
G1 X95.641 Y97.422 E25.78080
G1 X95.641 Y97.746 E25.78388
G1 X102.254 Y104.359 E25.87290
G1 X101.930 Y104.359 E25.87598
G1 X95.641 Y98.070 E25.96065
G1 X95.641 Y98.394 E25.96373
G1 X101.606 Y104.359 E26.04403
G1 X101.283 Y104.359 E26.04711
G1 X95.641 Y98.717 E26.12306
G1 X95.641 Y99.041 E26.12614
G1 X100.959 Y104.359 E26.19773
G1 X100.635 Y104.359 E26.20081
G1 X95.641 Y99.365 E26.26803
G1 X95.641 Y99.689 E26.27112
G1 X100.311 Y104.359 E26.33398
G1 X99.987 Y104.359 E26.33707
G1 X95.641 Y100.013 E26.39558
G1 X95.641 Y100.336 E26.39866
G1 X99.664 Y104.359 E26.45281
G1 X99.340 Y104.359 E26.45589
G1 X95.641 Y100.660 E26.50568
G1 X95.641 Y100.984 E26.50876
G1 X99.016 Y104.359 E26.55419
G1 X98.692 Y104.359 E26.55728
G1 X95.641 Y101.308 E26.59835
G1 X95.641 Y101.631 E26.60143
G1 X98.369 Y104.359 E26.63815
G1 X98.045 Y104.359 E26.64123
G1 X95.641 Y101.955 E26.67358
G1 X95.641 Y102.279 E26.67667
G1 X97.721 Y104.359 E26.70466
G1 X97.397 Y104.359 E26.70774
G1 X95.641 Y102.603 E26.73138
G1 X95.641 Y102.927 E26.73446
G1 X97.073 Y104.359 E26.75374
G1 X96.750 Y104.359 E26.75682
G1 X95.641 Y103.250 E26.77174
G1 X95.641 Y103.574 E26.77483
G1 X96.426 Y104.359 E26.78539
G1 X96.102 Y104.359 E26.78847
G1 X95.641 Y103.898 E26.79467
G1 X95.641 Y104.222 E26.79775
G1 X95.778 Y104.359 E26.79960
M106 S244.8
G1 Z0.500 F4500.000
G1 X104.623 Y104.623 F4500.000
G1 X95.377 Y104.623 E27.05274 F900.000
G1 X95.377 Y95.377 E27.30588
G1 X104.623 Y95.377 E27.55902
G1 X104.623 Y104.563 E27.81052
G1 X105.281 Y105.281 F4500.000
G1 X94.719 Y105.281 E28.09972 F1800.000
G1 X94.719 Y94.719 E28.38892
G1 X105.281 Y94.719 E28.67812
G1 X105.281 Y105.221 E28.96568
G1 X105.800 Y105.800 F4500.000
G1 X94.200 Y105.800 E29.14824 F900.000
G1 X94.200 Y94.200 E29.33080
G1 X105.800 Y94.200 E29.51336
G1 X105.800 Y105.740 E29.69497
G1 X105.454 Y105.600 F4500.000
G1 X103.449 Y99.318 F4500.000
G1 X101.346 Y98.754 E29.80869 F2400.000
G1 X98.268 Y101.832 E30.03611
G1 X98.789 Y103.776 E30.14125
G1 X103.433 Y103.776 E30.38387
G1 X103.776 Y103.433 E30.40923
G1 X103.776 Y98.990 E30.64135
G1 X103.449 Y99.318 E30.66554
G1 X100.458 Y97.866 F4500.000
G1 X100.018 Y96.224 E30.75435 F2400.000
G1 X96.224 Y96.224 E30.95257
G1 X96.224 Y100.634 E31.18299
G1 X97.380 Y100.944 E31.24551
G1 X100.458 Y97.866 E31.47294
G1 Z0.600 F4500.000
G1 X104.623 Y104.623 F4500.000
G1 X95.377 Y104.623 E31.72608 F900.000
G1 X95.377 Y95.377 E31.97922
G1 X104.623 Y95.377 E32.23236
G1 X104.623 Y104.563 E32.48386
G1 X105.281 Y105.281 F4500.000
G1 X94.719 Y105.281 E32.77306 F1800.000
G1 X94.719 Y94.719 E33.06226
G1 X105.281 Y94.719 E33.35146
G1 X105.281 Y105.221 E33.63902
G1 X105.800 Y105.800 F4500.000
G1 X94.200 Y105.800 E33.82158 F900.000
G1 X94.200 Y94.200 E34.00414
G1 X105.800 Y94.200 E34.18670
G1 X105.800 Y105.740 E34.36831
G1 X105.454 Y105.600 F4500.000
G1 X103.776 Y100.540 F4500.000
G1 X103.449 Y99.318 E34.43441 F2400.000
G1 X101.346 Y98.754 E34.54812
G1 X100.668 Y96.224 E34.68499
G1 X103.776 Y96.224 E34.84736
